X: 373
%
U:~=!turn!
T: The Marquis of Huntly's Highland Fling
C:
O:Scotland
B:Keith Norman MacDonald : "The Skye collection of the best reels & strathspeys extant" : 1887
Z:Ralph Palmer
R:Stathspey
M:C
L:1/8
K:D
A | d<df>d g>ef<d | B<ee>d {/d}c<AA<c | d<df>d g>ef<d | B>e (d/c/B/A/) d2 d ::
B | A<D (F/E/D) A>Bd>f | {/a}g>ef<d {/f}e>dB<d | A<D (F/E/D) A>Bd<b | a<fef d2 d :|


